public/assets/navbar-logo.svg

<svg width="56" height="35" viewBox="0 0 56 35" fill="none" xmlns="http://www.w3.org/2000/svg">
    <path d="M55.9229 1.85906C55.8923 1.7413 55.8537 1.62582 55.8073 1.51344C55.7758 1.4403 55.7408 1.36717 55.7034 1.29757C55.6661 1.2268 55.624 1.15956 55.5808 1.0935C55.3657 0.770949 55.0785 0.504101 54.7424 0.314566C54.4062 0.125031 54.0306 0.0181362 53.646 0.00253738C53.2613 -0.0130615 52.8784 0.0630743 52.5283 0.224779C52.1782 0.386485 51.8707 0.629214 51.6308 0.933312C51.3908 1.23741 51.2251 1.59433 51.147 1.97517C51.069 2.35601 51.0808 2.75006 51.1816 3.12542C51.2823 3.50078 51.4691 3.8469 51.7269 4.13574C51.9847 4.42459 52.3062 4.64804 52.6654 4.78801C52.231 7.04223 49.702 9.53473 47.201 10.9656C46.8155 11.1852 46.4115 11.37 45.9937 11.5176C46.5104 9.96639 46.7903 8.34475 46.8239 6.7084C47.3694 6.51441 47.8295 6.13182 48.1229 5.62825C48.4162 5.12469 48.5239 4.53257 48.4269 3.95655C48.3299 3.38053 48.0345 2.8577 47.5928 2.48046C47.1512 2.10321 46.5917 1.89585 46.0134 1.89501C45.435 1.89418 44.875 2.09993 44.4323 2.47589C43.9896 2.85186 43.6927 3.37384 43.5941 3.94958C43.4954 4.52532 43.6014 5.11774 43.8934 5.62215C44.1853 6.12656 44.6443 6.51048 45.1893 6.70604C45.1547 8.48411 44.7916 10.24 44.1186 11.8833C43.0643 14.4572 41.2918 16.6064 39.0816 17.8108L38.9485 17.8839C37.8743 18.4702 37.322 18.771 36.3483 18.8559C36.3903 18.4643 36.4732 18.0078 36.6156 17.2894C36.6565 17.083 36.7394 16.722 36.8375 16.3045C37.259 14.4926 37.5369 13.1396 37.684 12.1192C38.2238 11.9128 38.6742 11.5205 38.9558 11.0115C39.2375 10.5025 39.3323 9.90939 39.2236 9.33668C39.115 8.76397 38.8098 8.24836 38.3618 7.88067C37.9138 7.51298 37.3517 7.31679 36.7746 7.32664C36.1975 7.3365 35.6423 7.55177 35.2069 7.93454C34.7714 8.31732 34.4836 8.84305 34.3942 9.41914C34.3047 9.99524 34.4193 10.5847 34.7178 11.0838C35.0163 11.5829 35.4796 11.9596 36.026 12.1475C35.8077 13.5076 35.4189 15.1803 35.2461 15.9258C35.141 16.3764 35.0581 16.7327 35.0125 16.965C34.87 17.6165 34.7651 18.2759 34.6985 18.9397C33.518 19.0836 32.6003 19.5035 31.9079 20.2101C30.6189 21.5266 30.4403 23.5248 30.4333 25.5785C30.4309 25.9524 30.4344 26.3275 30.4391 26.7015C30.4426 27.0117 30.4449 27.3208 30.4449 27.6263V32.3966C30.4449 32.4309 30.4426 32.4652 30.4379 32.4992C30.4346 32.5331 30.4284 32.5667 30.4192 32.5995C30.3762 32.7828 30.266 32.9429 30.111 33.0477C30.1098 33.0489 30.1075 33.0501 30.1063 33.0513C30.1052 33.0513 30.1052 33.0524 30.104 33.0524C30.0911 33.0607 30.0795 33.0689 30.0666 33.0772C30.0583 33.0824 30.0497 33.0871 30.0409 33.0914C29.9669 33.1359 29.8892 33.1738 29.8086 33.2046C29.7627 33.222 29.7159 33.237 29.6685 33.2494C29.6159 33.2648 29.5622 33.2766 29.5062 33.2872C29.4501 33.299 29.3918 33.3072 29.331 33.3143C29.3248 33.3144 29.3185 33.3152 29.3124 33.3167C29.1107 33.3377 28.908 33.3479 28.7052 33.3473V33.3462H28.7017V30.9103C28.7016 30.8811 28.7075 30.8523 28.7191 30.8256C28.7307 30.7989 28.7478 30.775 28.7691 30.7554C28.7905 30.7358 28.8157 30.721 28.8431 30.7119C28.8705 30.7028 28.8995 30.6997 28.9282 30.7027C29.087 30.718 29.2645 30.7381 29.47 30.7605C29.4911 30.763 29.5125 30.7612 29.5329 30.7554C29.5533 30.7495 29.5724 30.7395 29.589 30.7262C29.6056 30.7128 29.6195 30.6962 29.6297 30.6774C29.6399 30.6586 29.6464 30.6379 29.6486 30.6166L29.7082 30.0728L29.7689 29.5278C29.7699 29.5223 29.7702 29.5168 29.7701 29.5113V29.5101C29.7699 29.4998 29.7691 29.4896 29.7677 29.4794C29.7633 29.4602 29.7558 29.4419 29.7455 29.4252C29.7405 29.4168 29.7346 29.4089 29.728 29.4016C29.7219 29.394 29.7148 29.3873 29.707 29.3815C29.6828 29.3632 29.6542 29.3518 29.6241 29.3485C28.85 29.2683 28.4145 29.2258 28 29.2246C27.5855 29.2258 27.15 29.2683 26.3759 29.3485C26.3358 29.352 26.2985 29.371 26.272 29.4016C26.2654 29.4088 26.2595 29.4167 26.2544 29.4252C26.2442 29.4419 26.2367 29.4602 26.2323 29.4794C26.2309 29.49 26.2301 29.5006 26.2299 29.5113C26.2298 29.5168 26.2302 29.5223 26.2311 29.5278L26.2918 30.0728L26.3514 30.6166C26.3536 30.6379 26.3601 30.6586 26.3703 30.6774C26.3805 30.6962 26.3943 30.7128 26.411 30.7262C26.4276 30.7395 26.4466 30.7495 26.4671 30.7554C26.4875 30.7612 26.5089 30.763 26.53 30.7605C26.7355 30.7381 26.913 30.718 27.0718 30.7027C27.1005 30.6997 27.1295 30.7028 27.1569 30.7119C27.1843 30.721 27.2095 30.7358 27.2309 30.7554C27.2522 30.775 27.2693 30.7989 27.2809 30.8256C27.2925 30.8523 27.2984 30.8811 27.2983 30.9103V33.3462H27.2948V33.3473C27.092 33.3479 26.8893 33.3377 26.6876 33.3167C26.6813 33.3165 26.6751 33.3157 26.6689 33.3143C26.6082 33.3072 26.5498 33.299 26.4938 33.2872C26.4378 33.2766 26.384 33.2648 26.3315 33.2494C26.2841 33.237 26.2373 33.222 26.1914 33.2046C26.1106 33.1743 26.0328 33.1364 25.959 33.0914C25.9502 33.0871 25.9417 33.0824 25.9334 33.0772C25.9205 33.0689 25.9088 33.0607 25.896 33.0524C25.8937 33.0513 25.8913 33.0489 25.889 33.0477C25.7339 32.9429 25.6238 32.7828 25.5807 32.5995C25.5716 32.5667 25.5654 32.5331 25.5621 32.4992C25.5574 32.4648 25.555 32.4301 25.5551 32.3954V27.6263C25.5551 27.3208 25.5574 27.0117 25.5609 26.7015C25.5656 26.3275 25.5691 25.9524 25.5667 25.5785C25.5597 23.5248 25.3811 21.5266 24.0921 20.2101C23.3997 19.5035 22.482 19.0836 21.3015 18.9397C21.2349 18.2759 21.13 17.6165 20.9874 16.965C20.9419 16.7327 20.859 16.3776 20.7539 15.927C20.5811 15.1815 20.1923 13.5076 19.974 12.1475C20.5206 11.9596 20.9841 11.5828 21.2828 11.0835C21.5815 10.5843 21.6963 9.9945 21.6068 9.41815C21.5173 8.8418 21.2295 8.31582 20.7938 7.93286C20.3582 7.54991 19.8028 7.33453 19.2254 7.32467C18.6481 7.31481 18.0858 7.5111 17.6376 7.87897C17.1894 8.24684 16.8841 8.76268 16.7754 9.33565C16.6667 9.90862 16.7616 10.502 17.0435 11.0112C17.3253 11.5204 17.7759 11.9128 18.316 12.1192C18.4631 13.1396 18.741 14.4926 19.1625 16.3045C19.2606 16.7232 19.3435 17.083 19.3843 17.2894C19.5268 18.0078 19.6097 18.4643 19.6517 18.8559C18.6779 18.771 18.1257 18.4702 17.0515 17.8839L16.9184 17.8108C14.7081 16.6064 12.9357 14.4572 11.8814 11.8833C11.2084 10.24 10.8453 8.48411 10.8107 6.70604C11.3558 6.51047 11.8149 6.12651 12.1069 5.62202C12.3989 5.11753 12.505 4.52499 12.4063 3.94914C12.3077 3.37329 12.0108 2.85121 11.568 2.47516C11.1252 2.09912 10.5651 1.89333 9.9866 1.89416C9.40814 1.895 8.84861 2.1024 8.40688 2.47973C7.96515 2.85705 7.66968 3.37999 7.57268 3.95612C7.47569 4.53225 7.58341 5.12447 7.87683 5.62812C8.17024 6.13177 8.63044 6.5144 9.17609 6.7084C9.20971 8.34475 9.48964 9.96639 10.0062 11.5176C9.58849 11.37 9.18449 11.1852 8.79896 10.9656C6.29798 9.53473 3.76898 7.04223 3.33463 4.78801C3.6939 4.6481 4.01549 4.42467 4.27336 4.13581C4.53124 3.84695 4.71815 3.5008 4.81896 3.12537C4.91976 2.74995 4.93163 2.35582 4.8536 1.9749C4.77556 1.59399 4.60982 1.23699 4.3698 0.932834C4.12978 0.628677 3.82223 0.385909 3.47205 0.224193C3.12187 0.0624764 2.73891 -0.0136414 2.35419 0.0020046C1.96947 0.0176506 1.59381 0.124621 1.25763 0.31425C0.921452 0.50388 0.634206 0.770837 0.41916 1.0935C0.375959 1.15956 0.333926 1.2268 0.296563 1.29757C0.2592 1.36717 0.224172 1.4403 0.192647 1.51344C0.146294 1.62582 0.107671 1.74131 0.0770553 1.85906C-0.0777309 2.4683 0.00248132 3.1142 0.301441 3.66592C0.600401 4.21764 1.09576 4.63394 1.68716 4.83048C2.11684 7.79482 5.15491 10.778 7.99332 12.4023C8.26224 12.5561 8.53895 12.6955 8.82231 12.8199C9.04999 12.9214 9.28234 13.0122 9.5182 13.0948C9.67816 13.1502 9.83928 13.2021 10.0027 13.2481C10.2596 13.3224 10.5212 13.3861 10.7839 13.438H10.785C10.8154 13.5029 10.8481 13.5666 10.8796 13.6315C10.9111 13.6952 10.9438 13.7577 10.9765 13.8214C12.2258 16.2219 14.0123 18.1033 16.1431 19.2653L16.275 19.3372C17.4718 19.9907 18.2529 20.4165 19.6646 20.5133C19.6611 20.5841 19.6576 20.6595 19.6541 20.7374C19.6435 20.9792 19.6319 21.2493 19.6202 21.5584C19.5793 22.5929 19.5373 24.0698 19.5373 26.4007V27.2099C19.5373 28.8413 21.1334 29.9336 22.4166 30.8124C22.8077 31.0801 23.1778 31.3338 23.4651 31.572C23.5397 31.8124 23.6001 32.057 23.646 32.3046C23.696 32.5689 23.7599 32.8304 23.8375 33.0878C23.8943 33.2822 23.9883 33.4633 24.1143 33.621C24.2182 33.7449 24.3221 33.8569 24.426 33.9595C24.4599 33.9938 24.4949 34.0268 24.5287 34.0586C24.7182 34.237 24.9265 34.3936 25.1499 34.5258C25.2071 34.56 25.2643 34.5906 25.3227 34.6201C25.4025 34.661 25.4843 34.6977 25.5679 34.7298C25.5959 34.7416 25.6239 34.7522 25.652 34.7617C25.8472 34.8324 26.0485 34.8849 26.2533 34.9186C26.279 34.9233 26.3046 34.928 26.3303 34.9315C26.3677 34.9374 26.4039 34.9433 26.4413 34.9469C26.5113 34.9563 26.5814 34.9634 26.6526 34.9705C26.746 34.9787 26.8406 34.9846 26.9352 34.9882C26.9608 34.9893 26.9865 34.9905 27.011 34.9917C27.2002 34.9988 27.394 35 27.5937 35H27.784L27.9381 34.9988H28.0619L28.216 35C28.4834 35 28.7402 35.0011 28.9889 34.9917C29.0135 34.9905 29.0391 34.9893 29.0648 34.9882C29.1606 34.9846 29.2552 34.9775 29.3474 34.9705C29.4186 34.9634 29.4887 34.9563 29.5587 34.9469C29.5961 34.9422 29.6335 34.9374 29.6696 34.9315C29.6953 34.928 29.721 34.9233 29.7467 34.9186C29.9515 34.8849 30.1527 34.8324 30.348 34.7617C30.376 34.7522 30.4041 34.7416 30.4321 34.7298C30.5156 34.6974 30.5974 34.6608 30.6773 34.6201C30.7357 34.5906 30.7929 34.56 30.8501 34.5258C31.0735 34.3936 31.2818 34.237 31.4712 34.0586C31.5051 34.0268 31.5401 33.9938 31.574 33.9595C31.6791 33.8569 31.7818 33.7449 31.8857 33.621C32.0117 33.4633 32.1057 33.2822 32.1625 33.0878C32.2401 32.8304 32.304 32.5689 32.3539 32.3046C32.3999 32.057 32.4603 31.8124 32.5349 31.572C32.8221 31.3338 33.1923 31.0801 33.5834 30.8124C34.8666 29.9336 36.4627 28.8413 36.4627 27.2099V26.4007C36.4627 24.0698 36.4207 22.5929 36.3798 21.5584C36.3681 21.2493 36.3564 20.9792 36.3459 20.7374C36.3424 20.6595 36.3389 20.5841 36.3354 20.5133C37.747 20.4165 38.5282 19.9907 39.7261 19.3372L39.8569 19.2653C41.9877 18.1033 43.7741 16.2219 45.0235 13.8214C45.0562 13.7577 45.0889 13.6952 45.1204 13.6315C45.1519 13.5666 45.1846 13.5029 45.215 13.438H45.2161C45.4788 13.3861 45.7392 13.3236 45.9972 13.2481C46.1607 13.2021 46.3218 13.1502 46.4818 13.0948C46.7176 13.0122 46.95 12.9214 47.1777 12.8199C47.4608 12.695 47.7375 12.5556 48.0067 12.4023C50.8451 10.778 53.8831 7.79482 54.3128 4.83048C54.9042 4.63395 55.3996 4.21766 55.6986 3.66593C55.9975 3.11421 56.0777 2.4683 55.9229 1.85906ZM2.45194 3.30289C2.29029 3.30289 2.13227 3.25447 1.99786 3.16374C1.86345 3.073 1.7587 2.94404 1.69684 2.79316C1.63498 2.64228 1.61879 2.47626 1.65033 2.31608C1.68186 2.15591 1.7597 2.00878 1.87401 1.8933C1.98831 1.77782 2.13394 1.69918 2.29249 1.66732C2.45103 1.63546 2.61536 1.65181 2.76471 1.71431C2.91405 1.7768 3.0417 1.88264 3.13151 2.01843C3.22131 2.15422 3.26925 2.31386 3.26925 2.47717C3.26901 2.69609 3.18283 2.90598 3.0296 3.06078C2.87638 3.21558 2.66863 3.30265 2.45194 3.30289ZM9.9899 5.19733C9.82825 5.19733 9.67023 5.14891 9.53583 5.05818C9.40142 4.96744 9.29666 4.83848 9.2348 4.6876C9.17294 4.53672 9.15676 4.3707 9.18829 4.21052C9.21983 4.05035 9.29767 3.90322 9.41197 3.78774C9.52628 3.67226 9.67191 3.59362 9.83045 3.56176C9.989 3.5299 10.1533 3.54625 10.3027 3.60875C10.452 3.67124 10.5797 3.77708 10.6695 3.91287C10.7593 4.04866 10.8072 4.2083 10.8072 4.37161C10.807 4.59053 10.7208 4.80042 10.5676 4.95522C10.4143 5.11002 10.2066 5.19709 9.9899 5.19733ZM19.1835 10.6294C18.9668 10.6292 18.7591 10.5421 18.6059 10.3873C18.4526 10.2325 18.3664 10.0226 18.3662 9.80368C18.3671 9.58496 18.4535 9.37545 18.6066 9.22079C18.7596 9.06613 18.967 8.97885 19.1835 8.97796C19.4003 8.97796 19.6082 9.06495 19.7614 9.2198C19.9147 9.37466 20.0008 9.58468 20.0008 9.80368C20.0008 10.0227 19.9147 10.2327 19.7614 10.3875C19.6082 10.5424 19.4003 10.6294 19.1835 10.6294ZM21.8713 20.7445C22.2701 20.8623 22.6339 21.0779 22.9303 21.372C23.3285 21.7778 23.5713 22.3452 23.7173 23.0058C23.7441 23.1261 23.7675 23.2488 23.7885 23.375C23.82 23.5637 23.8445 23.7584 23.8644 23.9589H23.8632C23.2776 23.9429 22.7212 23.6966 22.3127 23.2724C22.2379 23.1954 22.1688 23.113 22.106 23.0258C22.064 22.968 22.0243 22.9079 21.9881 22.8465C21.9694 22.8147 21.9519 22.784 21.9355 22.7522C21.9017 22.6885 21.8713 22.6224 21.8433 22.5552C21.7254 22.2674 21.6671 21.9583 21.6719 21.6469C21.6767 21.3355 21.7446 21.0284 21.8713 20.7445ZM23.9274 26.6838C23.9239 26.9999 23.9204 27.3149 23.9204 27.6263V29.8522C23.7324 29.7177 23.5363 29.5832 23.3343 29.4452C22.371 28.7858 21.1719 27.9648 21.1719 27.2099V26.4007C21.1719 25.7448 21.1754 25.1562 21.1813 24.6289C21.2256 24.6714 21.2723 24.7138 21.319 24.7539C21.4124 24.8342 21.5094 24.9108 21.6098 24.984C21.7106 25.0569 21.815 25.1246 21.9227 25.1869C22.0289 25.2494 22.1399 25.3072 22.2531 25.3603C22.7775 25.6052 23.3485 25.7316 23.9263 25.7307H23.9344C23.9344 26.0468 23.9309 26.3665 23.9274 26.6838ZM32.2115 23.375C32.2325 23.2488 32.2559 23.1261 32.2827 23.0058C32.4287 22.3452 32.6715 21.779 33.0697 21.372C33.3661 21.0779 33.7299 20.8623 34.1287 20.7445C34.2554 21.0284 34.3232 21.3355 34.3281 21.6469C34.3329 21.9583 34.2746 22.2674 34.1567 22.5552C34.1287 22.6224 34.0983 22.6885 34.0645 22.7522C34.0481 22.784 34.0306 22.8147 34.0119 22.8465C33.9757 22.9079 33.936 22.968 33.894 23.0258C33.8312 23.113 33.7621 23.1954 33.6873 23.2724C33.279 23.697 32.7225 23.9434 32.1368 23.9589H32.1356C32.1554 23.7584 32.18 23.5637 32.2115 23.375ZM34.8281 27.2099C34.8281 27.9648 33.6289 28.7858 32.6657 29.4452C32.4637 29.5832 32.2675 29.7177 32.0796 29.8522V27.6263C32.0796 27.3149 32.0761 26.9999 32.0726 26.6838C32.069 26.3665 32.0655 26.0468 32.0655 25.7307H32.0737C32.6514 25.731 33.2223 25.6047 33.7469 25.3603C33.8601 25.3072 33.9711 25.2494 34.0773 25.1869C34.1847 25.1232 34.2898 25.0559 34.3902 24.984C34.4404 24.9474 34.4906 24.9097 34.5397 24.8719C34.6366 24.794 34.73 24.7138 34.8187 24.6289C34.8246 25.1574 34.8281 25.7448 34.8281 26.4007V27.2099ZM36.1428 10.2708C36.0219 10.0936 35.9744 9.87572 36.0103 9.66362C36.0462 9.45152 36.1628 9.262 36.3351 9.13549C36.5074 9.00898 36.7218 8.95549 36.9326 8.98644C37.1433 9.0174 37.3338 9.13034 37.4633 9.30117C37.5741 9.44471 37.6342 9.62163 37.6338 9.80368C37.6338 9.97994 37.578 10.1516 37.4745 10.2935C37.371 10.4354 37.2253 10.5401 37.0587 10.5923C36.892 10.6445 36.7132 10.6415 36.5484 10.5836C36.3836 10.5258 36.2415 10.4162 36.1428 10.2708ZM45.1928 4.37161C45.1928 4.2083 45.2407 4.04866 45.3305 3.91287C45.4203 3.77708 45.548 3.67124 45.6973 3.60875C45.8467 3.54625 46.011 3.5299 46.1695 3.56176C46.3281 3.59362 46.4737 3.67226 46.588 3.78774C46.7023 3.90322 46.7802 4.05035 46.8117 4.21052C46.8432 4.3707 46.827 4.53672 46.7652 4.6876C46.7033 4.83848 46.5986 4.96744 46.4642 5.05818C46.3297 5.14891 46.1717 5.19733 46.0101 5.19733C45.7934 5.19709 45.5856 5.11002 45.4324 4.95522C45.2792 4.80042 45.193 4.59053 45.1928 4.37161ZM53.5481 3.30289C53.3864 3.30289 53.2284 3.25447 53.094 3.16374C52.9596 3.073 52.8548 2.94404 52.7929 2.79316C52.7311 2.64228 52.7149 2.47626 52.7464 2.31608C52.778 2.15591 52.8558 2.00878 52.9701 1.8933C53.0844 1.77782 53.2301 1.69918 53.3886 1.66732C53.5471 1.63546 53.7115 1.65181 53.8608 1.71431C54.0102 1.7768 54.1378 1.88264 54.2276 2.01843C54.3174 2.15422 54.3654 2.31386 54.3654 2.47717C54.3651 2.6961 54.2789 2.90598 54.1257 3.06078C53.9725 3.21559 53.7647 3.30266 53.5481 3.30289Z"
          fill="#FEFCFC"/>
    <path d="M34.6618 16.4172C34.621 16.5976 34.5883 16.7498 34.5637 16.8713C34.5392 16.9964 34.5159 17.1143 34.4949 17.2264C34.4855 17.2724 34.4762 17.3184 34.468 17.362C34.4201 17.618 34.3816 17.8398 34.3489 18.0391C30.3266 17.2936 26.1664 17.3042 21.6735 18.0674C21.6408 17.861 21.6 17.631 21.5498 17.362C21.5428 17.3266 21.5358 17.2913 21.5288 17.2547C21.5066 17.1344 21.4809 17.0081 21.454 16.8725C21.4318 16.7569 21.3992 16.6118 21.363 16.4455C26.0684 15.641 30.4328 15.6327 34.6618 16.4172Z"
          fill="#FEFCFC"/>
</svg>

<svg xmlns="http://www.w3.org/2000/svg" width="56" height="35" fill="none"><path fill="#FEFCFC" d="M55.923 1.86a3 3 0 0 0-.116-.347 3 3 0 0 0-.226-.42 2.46 2.46 0 0 0-.839-.778 2.43 2.43 0 0 0-3.111.618 2.49 2.49 0 0 0-.45 2.192c.101.376.288.722.546 1.01.258.29.58.513.938.653-.434 2.254-2.963 4.747-5.464 6.178q-.58.33-1.207.552c.516-1.552.796-3.173.83-4.81a2.46 2.46 0 0 0 1.299-1.08 2.5 2.5 0 0 0-.53-3.148 2.44 2.44 0 0 0-3.16-.004 2.498 2.498 0 0 0-.539 3.146c.291.505.75.888 1.295 1.084a14.4 14.4 0 0 1-1.07 5.177c-1.055 2.574-2.827 4.723-5.037 5.928l-.133.073c-1.075.586-1.627.887-2.6.972.041-.392.124-.848.267-1.567.04-.206.123-.567.221-.985.422-1.811.7-3.164.847-4.185.54-.206.99-.598 1.272-1.107a2.5 2.5 0 0 0-.594-3.131 2.436 2.436 0 0 0-3.155.054 2.498 2.498 0 0 0-.49 3.15c.3.498.763.875 1.309 1.063-.218 1.36-.607 3.032-.78 3.778-.105.45-.188.807-.233 1.039q-.215.977-.314 1.975c-1.181.144-2.099.563-2.791 1.27-1.29 1.317-1.468 3.315-1.475 5.368q-.002.562.006 1.124.006.466.006.924v4.77a.8.8 0 0 1-.026.203.75.75 0 0 1-.308.449l-.005.003-.002.001-.037.025-.026.014a1.5 1.5 0 0 1-.372.158 1.954 1.954 0 0 1-.356.067 6 6 0 0 1-.608.031h-.003V30.91a.2.2 0 0 1 .067-.155.2.2 0 0 1 .16-.052q.235.023.541.058a.16.16 0 0 0 .179-.144l.06-.544.06-.545.001-.017q0-.016-.002-.032a.2.2 0 0 0-.061-.098.2.2 0 0 0-.083-.032c-.774-.08-1.21-.123-1.624-.124-.415 0-.85.043-1.624.123a.16.16 0 0 0-.122.077.2.2 0 0 0-.022.054.3.3 0 0 0 0 .049l.06.545.06.544a.16.16 0 0 0 .115.138.2.2 0 0 0 .063.006q.305-.035.542-.058a.2.2 0 0 1 .209.123.2.2 0 0 1 .017.084v2.436h-.003v.001a6 6 0 0 1-.626-.033 2 2 0 0 1-.338-.065 1.4 1.4 0 0 1-.398-.172l-.037-.025-.007-.004a.75.75 0 0 1-.327-.549 1 1 0 0 1-.007-.104v-4.769q0-.458.006-.925.008-.56.006-1.123c-.007-2.053-.186-4.051-1.475-5.368-.692-.707-1.61-1.126-2.79-1.27a17 17 0 0 0-.315-1.975c-.045-.232-.128-.587-.233-1.038-.173-.745-.562-2.42-.78-3.78a2.46 2.46 0 0 0 1.309-1.063 2.5 2.5 0 0 0-.49-3.151 2.44 2.44 0 0 0-3.155-.054 2.5 2.5 0 0 0-.594 3.132c.281.51.732.902 1.272 1.108.147 1.02.425 2.374.847 4.186.098.418.18.778.221.984.143.719.226 1.175.268 1.567-.974-.085-1.526-.386-2.6-.972l-.134-.073c-2.21-1.205-3.982-3.354-5.037-5.928a14.4 14.4 0 0 1-1.07-5.177 2.46 2.46 0 0 0 1.296-1.084 2.5 2.5 0 0 0-.539-3.147 2.44 2.44 0 0 0-3.161.005 2.499 2.499 0 0 0-.53 3.148c.293.504.753.886 1.3 1.08.033 1.637.313 3.258.83 4.81a7.5 7.5 0 0 1-1.208-.552c-2.501-1.431-5.03-3.924-5.464-6.178.359-.14.68-.363.938-.652a2.49 2.49 0 0 0 .58-2.161A2.5 2.5 0 0 0 4.37.933 2.43 2.43 0 0 0 1.258.314a2.46 2.46 0 0 0-1.065 1.2 2.502 2.502 0 0 0 .109 2.152A2.46 2.46 0 0 0 1.686 4.83c.43 2.965 3.468 5.948 6.306 7.572q.404.23.83.418a9 9 0 0 0 1.18.428q.386.112.78.19h.002q.046.097.095.194l.096.19c1.25 2.4 3.036 4.281 5.167 5.443l.132.072c1.197.654 1.978 1.08 3.39 1.176l-.01.224a118.956 118.956 0 0 0-.117 5.663v.81c0 1.631 1.595 2.724 2.879 3.602.39.268.76.522 1.048.76q.112.36.181.733.075.396.191.783c.057.194.151.375.277.533a5 5 0 0 0 .415.438 3.5 3.5 0 0 0 .794.561 2.5 2.5 0 0 0 .329.142q.293.105.601.157l.077.013.111.015q.104.014.212.023a6 6 0 0 0 .358.022q.284.01.583.008h.19l.154-.001h.124l.154.001c.267 0 .524.001.773-.008l.076-.004q.144-.005.282-.017a6 6 0 0 0 .4-.052 3.4 3.4 0 0 0 .93-.299q.088-.044.173-.094a3.5 3.5 0 0 0 .724-.567 5 5 0 0 0 .312-.338 1.6 1.6 0 0 0 .277-.533q.116-.388.19-.783.07-.372.182-.733a15 15 0 0 1 1.048-.76c1.284-.878 2.88-1.97 2.88-3.602v-.81a119 119 0 0 0-.128-5.887c1.412-.097 2.193-.522 3.391-1.176l.13-.072c2.132-1.162 3.918-3.043 5.167-5.444q.05-.094.097-.19.049-.096.095-.193h.001q.394-.077.781-.19a8.6 8.6 0 0 0 1.18-.428 9 9 0 0 0 .83-.418c2.838-1.624 5.876-4.607 6.306-7.572a2.46 2.46 0 0 0 1.386-1.164c.299-.552.379-1.198.224-1.807M2.452 3.302a.81.81 0 0 1-.755-.51.83.83 0 0 1 .177-.9.815.815 0 0 1 1.395.584.83.83 0 0 1-.24.584.81.81 0 0 1-.577.242M9.99 5.197a.81.81 0 0 1-.755-.51.83.83 0 0 1 .177-.9.815.815 0 0 1 1.395.585.83.83 0 0 1-.24.583.81.81 0 0 1-.577.242m9.193 5.432a.81.81 0 0 1-.577-.242.83.83 0 0 1 0-1.166.813.813 0 0 1 1.155-.001.83.83 0 0 1 0 1.168.81.81 0 0 1-.578.241m2.688 10.115c.4.118.763.334 1.06.628.397.406.64.973.786 1.634q.04.18.072.369.046.283.075.584a2.24 2.24 0 0 1-1.758-.933 2.3 2.3 0 0 1-.263-.47 2.3 2.3 0 0 1 .028-1.812m2.056 5.94q-.006.474-.007.942v2.226a33 33 0 0 0-.586-.407c-.963-.66-2.162-1.48-2.162-2.235v-.81q0-.982.01-1.771.066.064.137.125.14.12.29.23.153.109.314.203.16.093.33.173a3.9 3.9 0 0 0 1.673.37h.008q0 .476-.007.954m8.285-3.309q.03-.189.07-.37c.147-.66.39-1.226.788-1.633.296-.294.66-.51 1.059-.628a2.3 2.3 0 0 1-.235 2.282q-.095.131-.207.246a2.23 2.23 0 0 1-1.55.687h-.001q.03-.3.075-.584m2.616 3.835c0 .755-1.2 1.576-2.162 2.235q-.303.207-.586.407v-2.226q-.001-.467-.007-.942a84 84 0 0 1-.008-.953h.009a3.96 3.96 0 0 0 2.466-.86 4 4 0 0 0 .279-.242q.01.79.01 1.772zm1.315-16.94a.83.83 0 0 1 .192-1.135.81.81 0 0 1 1.128.166.831.831 0 0 1 .011.992.82.82 0 0 1-.926.29.8.8 0 0 1-.405-.312m9.05-5.898a.83.83 0 0 1 .504-.763.81.81 0 0 1 .891.179.83.83 0 0 1 .177.9.82.82 0 0 1-.755.51.81.81 0 0 1-.578-.243.83.83 0 0 1-.24-.583m8.355-1.07a.81.81 0 0 1-.755-.509.83.83 0 0 1 .177-.9.815.815 0 0 1 .89-.179.82.82 0 0 1 .505.763.83.83 0 0 1-.24.584.81.81 0 0 1-.577.242"/><path fill="#FEFCFC" d="M34.662 16.417q-.062.271-.098.454l-.07.355-.026.136c-.048.256-.086.478-.12.677-4.021-.745-8.182-.735-12.674.028a27 27 0 0 0-.124-.705l-.021-.107q-.034-.18-.075-.383c-.022-.115-.055-.26-.091-.427 4.705-.804 9.07-.812 13.299-.028"/></svg>
